X:674
T:Planxty O'Kelly
C:O'Carolan
B:O'Neill's 674
Z: 1997 by John Chambers <jc@trillian.mit.edu>
N:"Lively"
N:First phrase is 10 bars.
M:6/8
L:1/8
K:G
|G2G G2A|B2c d2B|d2e f2g|ba2g gfed|b2a ag2f|
|ag2f fe2d|e2f ag2e|dec BcA|G2g gaf|g3 g3 :|
|: G2g g2z|G2g g2a|g/a/b.a ag2f|ag2f fe2d|
|e2f ag2e|dec BcA|G2g gaf|g3 g2z|]
